src/assets/duotone/Paypal.svg

<svg width="24" height="24" viewBox="0 0 24 24"  xmlns="http://www.w3.org/2000/svg">
<path d="M19.0002 7C19.0002 7.18 18.9902 7.35 18.9702 7.52C18.8502 8.97 18.2102 10.28 17.2402 11.24C16.1602 12.33 14.6602 13 13.0002 13H9.87021C9.37021 13 8.95022 13.37 8.88022 13.86L8.12021 19.14C8.06021 19.53 7.78022 19.85 7.41022 19.95C7.32022 19.99 7.23022 20 7.13022 20H5.1802C4.5602 20 4.09021 19.45 4.19021 18.84L6.5802 4.50999C6.8202 3.05999 8.07022 2 9.54022 2H14.0002C16.7602 2 19.0002 4.24 19.0002 7Z" />
<path opacity="0.4" d="M21.0005 10.9995C21.0005 12.3795 20.4405 13.6295 19.5405 14.5395C18.6305 15.4395 17.3805 15.9995 16.0005 15.9995H13.8505C13.3605 15.9995 12.9405 16.3495 12.8605 16.8395L12.1405 21.1595C12.0605 21.6495 11.6405 21.9995 11.1505 21.9995H8.22047C7.59047 21.9995 7.12046 21.4195 7.24046 20.7995L7.41048 19.9495C7.78048 19.8495 8.06047 19.5295 8.12047 19.1395L8.88048 13.8595C8.95048 13.3695 9.37047 12.9995 9.87047 12.9995H13.0005C14.6605 12.9995 16.1605 12.3295 17.2405 11.2395C18.2105 10.2795 18.8505 8.96953 18.9705 7.51953C20.1805 8.20953 21.0005 9.50953 21.0005 10.9995Z" />
</svg>

<?xml version="1.0" encoding="UTF-8"?>
<svg width="24" height="24" viewBox="0 0 24 24" xmlns="http://www.w3.org/2000/svg">
 <path d="m19 7c0 0.18-0.01 0.35-0.03 0.52-0.12 1.45-0.76 2.76-1.73 3.72-1.08 1.09-2.58 1.76-4.24 1.76h-3.13c-0.5 0-0.91999 0.37-0.98999 0.86l-0.76001 5.28c-0.06 0.39-0.33999 0.71-0.70999 0.81-0.09 0.04-0.18 0.05-0.28 0.05h-1.95c-0.62 0-1.09-0.55-0.98999-1.16l2.39-14.33c0.24-1.45 1.49-2.51 2.96-2.51h4.46c2.76 0 5 2.24 5 5z"/>
 <path d="m21 11c0 1.38-0.56 2.63-1.46 3.54-0.91 0.9-2.16 1.46-3.54 1.46h-2.15c-0.49 0-0.91 0.35-0.99 0.84l-0.72 4.32c-0.08 0.49-0.5 0.84-0.99 0.84h-2.93c-0.63 0-1.1-0.58-0.98001-1.2l0.17002-0.85c0.37-0.1 0.64999-0.42 0.70999-0.81l0.76001-5.28c0.07-0.49 0.48999-0.86 0.98999-0.86h3.13c1.66 0 3.16-0.67 4.24-1.76 0.97-0.96 1.61-2.27 1.73-3.72 1.21 0.69 2.03 1.99 2.03 3.48z" opacity=".4"/>
</svg>
